X: 11012
T: COTILLION No. 16. tune 4
C:
%R: hornpipe, reel
B: Elias Howe "The Musician's Companion" Part 1 1842 p.101 #2
S: http://imslp.org/wiki/The_Musician's_Companion_(Howe,_Elias)
Z: 2015 John Chambers <jc:trillian.mit.edu>
M: 2/4
L: 1/16
K: G
% - - - - - - - - - - - - - - - - - - - - - - - - -
!p!(Bd) |\
g4 a>gf>g | d>B (3(dcA) G2(Bd) |\
dcAF dcAc | e4 d2 !f!(Bd) |\
g4 a>gf>g | d>B (3(dcA) G2(Bd) |
(dc)Ac (ed)FA | (A4 G2 H|] !f!(3(GAB) |\
(A4 c2) (3(DEF) | (G4 B2) (GB) |\
d2D2D2D2 | D2E>F G2 (3(GAB) |\
(A4 c2) (3(DEF) | (G4 B2) (GB) |
d2D2D2D2 | "^D.C."G6 |] [K:C=f] !p!G2 |\
c2 "^>"e4 g2 | (ga) "^>"d4 "^>"e2 |\
f2 "^>"A4 B2 | (ce) "^>"g4 G2 |\
c2 "^>"e4 g2 | (ga) "^>"d4 e2 |\
f2 "^>"A4 B2 | (d4 "^D.C."c2) |]
% - - - - - - - - - - Dance description - - - - - - - - - -
%%begintext align
%% Ladies all forward to the centre,
%% and balatta,
%% back and balatta,
%% all chassa across partners and back,
%% gentlemen the same.
%%endtext
%- - - - - - - - - - - - - - - - - - - - - - - - -
%%sep 1 1 300
